X: 11971
T: Endless Winter
R: slide
M: 12/8
K: Dmajor
|:"D" D3 DEF A2 B A2 F|A2 B d2 e f2 B B2 A|
"G" g3 gfe"D" f2 f fed|1 "A" e2 f e2 d"A7" B2 A F2 E:|2 "A7" e2 f fec"D" d6||
|:"D" f2 a a2 f"A" gfe"D" f2 d|"D" f2 a a2 f"G" gfg"A" e3|
bag agf"Em" g2 e"A" c2 A|"D" f2 d"A7" ecA"D" d6:|

